icon_installer/data/icons/scalable/actions/show-drawer-symbolic.svg

<?xml version="1.0" encoding="UTF-8"?>
<svg height="16px" viewBox="0 0 16 16" width="16px" xmlns="http://www.w3.org/2000/svg">
    <path d="m 3.1875 0 c -1.207031 0 -2.1875 0.800781 -2.1875 2 v 10.976562 c 0 1.203126 0.980469 2 2.1875 2 h 9.625 c 1.207031 0 2.1875 -1.015624 2.1875 -2.21875 v -10.539062 c 0 -1.199219 -0.980469 -2.21875 -2.1875 -2.21875 z m -0.1875 2 h 10 v 11 h -10 z m 1 1 v 4 h 8.03125 v -4 z m 3 1 h 2 c 0.546875 0 1 0.453125 1 1 h -4 c 0 -0.546875 0.453125 -1 1 -1 z m -2.96875 4 v 4 h 8.03125 v -4 z m 2.96875 0.96875 h 2 c 0.546875 0 1 0.453125 1 1 h -4 c 0 -0.546875 0.453125 -1 1 -1 z m 0 0" fill="#222222"/>
</svg>

<svg xmlns="http://www.w3.org/2000/svg" width="16" height="16"><path fill="#222" d="M3.188 0C1.98 0 1 .8 1 2v10.977c0 1.203.98 2 2.188 2h9.624c1.208 0 2.188-1.016 2.188-2.22V2.22C15 1.019 14.02 0 12.812 0zM3 2h10v11H3zm1 1v4h8.031V3zm3 1h2c.547 0 1 .453 1 1H6c0-.547.453-1 1-1zM4.031 8v4h8.032V8zM7 8.969h2c.547 0 1 .453 1 1H6c0-.547.453-1 1-1zm0 0"/></svg>
